common/src/main/resources/glyphs/plugins/ruby/expui/ruby/nodes/notDefined.svg

<svg xmlns="http://www.w3.org/2000/svg" width="16" height="16" fill="#26C6DA" data-big="true" viewBox="0 0 24 24"><path d="m15.07 11.25-.9.92C13.45 12.89 13 13.5 13 15h-2v-.5c0-1.11.45-2.11 1.17-2.83l1.24-1.26c.37-.36.59-.86.59-1.41a2 2 0 0 0-2-2 2 2 0 0 0-2 2H8a4 4 0 0 1 4-4 4 4 0 0 1 4 4 3.2 3.2 0 0 1-.93 2.25M13 19h-2v-2h2M12 2A10 10 0 0 0 2 12a10 10 0 0 0 10 10 10 10 0 0 0 10-10c0-5.53-4.5-10-10-10"/></svg>

<!--
  - The MIT License (MIT)
  -
  - Copyright (c) 2015-2024 Elior "Mallowigi" Boukhobza
  -
  - Permission is hereby granted, free of charge, to any person obtaining a copy
  - of this software and associated documentation files (the "Software"), to deal
  - in the Software without restriction, including without limitation the rights
  - to use, copy, modify, merge, publish, distribute, sublicense, and/or sell
  - copies of the Software, and to permit persons to whom the Software is
  - furnished to do so, subject to the following conditions:
  -
  - The above copyright notice and this permission notice shall be included in all
  - copies or substantial portions of the Software.
  -
  - THE SOFTWARE IS PROVIDED "AS IS", WITHOUT WARRANTY OF ANY KIND, EXPRESS OR
  - IMPLIED, INCLUDING BUT NOT LIMITED TO THE WARRANTIES OF MERCHANTABILITY,
  - FITNESS FOR A PARTICULAR PURPOSE AND NONINFRINGEMENT. IN NO EVENT SHALL THE
  - AUTHORS OR COPYRIGHT HOLDERS BE LIABLE FOR ANY CLAIM, DAMAGES OR OTHER
  - LIABILITY, WHETHER IN AN ACTION OF CONTRACT, TORT OR OTHERWISE, ARISING FROM,
  - OUT OF OR IN CONNECTION WITH THE SOFTWARE OR THE USE OR OTHER DEALINGS IN THE
  - SOFTWARE.
  -->


<svg data-big="true" xmlns="http://www.w3.org/2000/svg" version="1.1" width="16px" height="16px" viewBox="0 0 24 24"
     fill="#26C6DA">
  <path
    d="M15.07,11.25L14.17,12.17C13.45,12.89 13,13.5 13,15H11V14.5C11,13.39 11.45,12.39 12.17,11.67L13.41,10.41C13.78,10.05 14,9.55 14,9C14,7.89 13.1,7 12,7A2,2 0 0,0 10,9H8A4,4 0 0,1 12,5A4,4 0 0,1 16,9C16,9.88 15.64,10.67 15.07,11.25M13,19H11V17H13M12,2A10,10 0 0,0 2,12A10,10 0 0,0 12,22A10,10 0 0,0 22,12C22,6.47 17.5,2 12,2Z"/>
</svg>
